app/img/next-arrow.svg

<svg width="109" height="25" viewBox="0 0 109 25" fill="none" xmlns="http://www.w3.org/2000/svg">
<path d="M108.707 12.7071C109.098 12.3166 109.098 11.6834 108.707 11.2929L102.343 4.92894C101.953 4.53841 101.319 4.53841 100.929 4.92894C100.538 5.31946 100.538 5.95263 100.929 6.34315L106.586 12L100.929 17.6569C100.538 18.0474 100.538 18.6805 100.929 19.0711C101.319 19.4616 101.953 19.4616 102.343 19.0711L108.707 12.7071ZM68 13L108 13L108 11L68 11L68 13Z" fill="#C4C4C4"/>
<path d="M5.39648 8.05762C4.71094 8.05762 4.16895 8.45898 3.77051 9.26172C3.37793 10.0645 3.18164 11.1807 3.18164 12.6104C3.18164 15.5869 3.95801 17.0752 5.51074 17.0752C6.19043 17.0752 6.90234 16.8584 7.64648 16.4248V18.5518C7.01953 18.9678 6.2168 19.1758 5.23828 19.1758C3.79102 19.1758 2.67773 18.6016 1.89844 17.4531C1.125 16.2988 0.738281 14.6787 0.738281 12.5928C0.738281 10.5068 1.13672 8.88086 1.93359 7.71484C2.73633 6.54883 3.84961 5.96582 5.27344 5.96582C5.74219 5.96582 6.19043 6.03027 6.61816 6.15918C7.05176 6.28809 7.51465 6.51367 8.00684 6.83594L7.21582 8.77832C6.95215 8.59668 6.6709 8.43262 6.37207 8.28613C6.07324 8.13379 5.74805 8.05762 5.39648 8.05762ZM19.2023 19H16.8117V8.25098H14.8869C14.6232 11.2158 14.3596 13.665 14.0959 15.5986C13.9201 16.835 13.6008 17.7402 13.1379 18.3145C12.6809 18.8887 12.0686 19.1758 11.301 19.1758C10.8264 19.1758 10.4367 19.1113 10.132 18.9824V17.0049C10.3078 17.0752 10.5246 17.1104 10.7824 17.1104C11.1105 17.1104 11.3596 16.8525 11.5295 16.3369C11.7053 15.8213 11.9016 14.6641 12.1184 12.8652C12.341 11.0664 12.5725 8.82812 12.8127 6.15039H19.2023V19ZM29.0707 19H23.2787V6.15039H29.0707V8.21582H25.6693V11.2744H28.8246V13.3486H25.6693V16.9082H29.0707V19ZM42.1031 22.6738H39.7828V19H34.0172V22.6738H31.6969V16.8906H32.4527C33.6598 13.6855 34.4332 10.1055 34.773 6.15039H40.6441V16.8906H42.1031V22.6738ZM38.2535 16.8906V8.25098H36.7945C36.648 9.6748 36.4107 11.1543 36.0826 12.6895C35.7604 14.2188 35.3795 15.6191 34.94 16.8906H38.2535Z" fill="#C4C4C4"/>
</svg>

<svg width="109" height="25" fill="none" xmlns="http://www.w3.org/2000/svg"><path d="M108.707 12.707a1 1 0 000-1.414l-6.364-6.364a1 1 0 10-1.414 1.414L106.586 12l-5.657 5.657a1 1 0 101.414 1.414l6.364-6.364zM68 13h40v-2H68v2zM5.396 8.058c-.685 0-1.227.401-1.625 1.204-.393.803-.59 1.919-.59 3.348 0 2.977.777 4.465 2.33 4.465.68 0 1.391-.217 2.135-.65v2.127c-.626.416-1.43.624-2.408.624-1.447 0-2.56-.574-3.34-1.723-.773-1.154-1.16-2.774-1.16-4.86 0-2.086.399-3.712 1.196-4.878.802-1.166 1.916-1.75 3.34-1.75.468 0 .916.065 1.344.194.434.13.897.355 1.389.677l-.791 1.942a6.624 6.624 0 00-.844-.492 2.117 2.117 0 00-.976-.228zM19.202 19h-2.39V8.251h-1.925c-.264 2.965-.527 5.414-.791 7.348-.176 1.236-.495 2.141-.958 2.715-.457.575-1.07.862-1.837.862-.475 0-.864-.065-1.169-.194v-1.977c.176.07.393.105.65.105.329 0 .578-.258.748-.773.175-.516.372-1.673.588-3.472.223-1.799.454-4.037.695-6.715h6.39V19zm9.869 0h-5.792V6.15h5.792v2.066h-3.402v3.058h3.156v2.075h-3.156v3.56h3.402V19zm13.032 3.674h-2.32V19h-5.766v3.674h-2.32V16.89h.756c1.207-3.205 1.98-6.785 2.32-10.74h5.871v10.74h1.46v5.783zm-3.85-5.783V8.25h-1.459a41.672 41.672 0 01-.711 4.439 34.922 34.922 0 01-1.143 4.2h3.314z" fill="#C4C4C4"/></svg>
